X:39
T:Reel du Carnaval
C:Joseph Allard
M:2/4
L:1/16
Z:abc by Bruce Osborne - bosborne@kos.net
K:G
dc|BcAB G2Bd|gdBd c2Bc|dBcA FAdc|BGdB Aedc|!
BcAB G2Bd|gdBd c2Bc|dBcA FAdc|BGAF G2:|!
|:GA|BGBd g2gb|agbg agbg|eaag a2ab|agab g2dc|!
BGBd g2ga|bgdB c2Bc|dBcA FAdc|BGAF G2:|!
